assets/img/logo-twitter.svg

<svg width="16" height="16" viewBox="0 0 16 16" fill="none" xmlns="http://www.w3.org/2000/svg">
<path d="M15.5 3.4217C14.9373 3.66618 14.342 3.82725 13.7328 3.89982C14.373 3.52494 14.8545 2.92937 15.0869 2.22482C14.4816 2.57876 13.8205 2.82709 13.1319 2.9592C12.8419 2.6553 12.4932 2.41354 12.1069 2.24862C11.7205 2.08369 11.3047 1.99905 10.8847 1.99982C9.18406 1.99982 7.80781 3.35607 7.80781 5.02795C7.80661 5.2605 7.83325 5.49236 7.88719 5.71857C6.66772 5.6614 5.4736 5.35032 4.38124 4.80521C3.28889 4.26011 2.32234 3.493 1.54344 2.55295C1.27018 3.01361 1.12567 3.53921 1.125 4.07482C1.125 5.12482 1.67281 6.05295 2.5 6.5967C2.00991 6.58507 1.52987 6.45535 1.10063 6.21857V6.25607C1.10063 7.72482 2.16313 8.9467 3.56938 9.22482C3.30493 9.29532 3.03243 9.33103 2.75875 9.33107C2.56456 9.33141 2.3708 9.31257 2.18031 9.27482C2.57125 10.4779 3.70906 11.3529 5.05688 11.3779C3.96168 12.222 2.61707 12.6782 1.23438 12.6748C0.988943 12.6745 0.743739 12.6599 0.5 12.6311C1.90662 13.5293 3.5417 14.0044 5.21063 13.9998C10.8781 13.9998 13.9744 9.3842 13.9744 5.38107C13.9744 5.24982 13.9709 5.11857 13.9647 4.99045C14.5657 4.56297 15.0856 4.03173 15.5 3.4217Z" fill="white"/>
</svg>

<svg width="16" height="16" fill="none" xmlns="http://www.w3.org/2000/svg"><path d="M15.5 3.422a6.307 6.307 0 0 1-1.767.478 3.047 3.047 0 0 0 1.354-1.675 6.18 6.18 0 0 1-1.955.734A3.098 3.098 0 0 0 10.885 2c-1.7 0-3.077 1.357-3.077 3.029a2.86 2.86 0 0 0 .08.69 8.772 8.772 0 0 1-6.345-3.165 2.99 2.99 0 0 0-.418 1.522A3.02 3.02 0 0 0 2.5 6.597a3.047 3.047 0 0 1-1.4-.378v.037c0 1.469 1.063 2.69 2.47 2.969-.265.07-.538.106-.811.106a2.95 2.95 0 0 1-.579-.056 3.076 3.076 0 0 0 2.877 2.103A6.237 6.237 0 0 1 .5 12.63 8.708 8.708 0 0 0 5.21 14c5.668 0 8.764-4.616 8.764-8.619a8.11 8.11 0 0 0-.01-.39A6.201 6.201 0 0 0 15.5 3.42Z" fill="#fff"/></svg>
